svgs/sharp-solid/message-medical.svg

<svg xmlns="http://www.w3.org/2000/svg" viewBox="0 0 512 512"><!--! Font Awesome Pro 6.6.0 by @fontawesome - https://fontawesome.com License - https://fontawesome.com/license (Commercial License) Copyright 2024 Fonticons, Inc. --><path d="M0 0L512 0l0 416-208 0L160 512l0-96L0 416 0 0zM224 112l0 64-64 0 0 64 64 0 0 64 64 0 0-64 64 0 0-64-64 0 0-64-64 0z"/></svg>

<svg xmlns="http://www.w3.org/2000/svg" viewBox="0 0 512 512"><!--! Font Awesome Pro 6.4.2 by @fontawesome - https://fontawesome.com License - https://fontawesome.com/license (Commercial License) Copyright 2023 Fonticons, Inc. --><path d="M0 0H512V416H304L160 512V416H0V0zM224 112v64H160v64h64v64h64V240h64V176H288V112H224z"/></svg>
